public/vodka.svg

<svg fill="none" height="64" viewBox="0 0 64 64" width="64" xmlns="http://www.w3.org/2000/svg"><path d="m24 28.4603c0-3.1529 1.0347-6.2185 2.9452-8.7266 1.3329-1.7497 2.0548-3.8886 2.0548-6.0882v-8.6455c0-.55229.4477-1 1-1h4c.5523 0 1 .44772 1 1v8.6455c0 2.1996.7219 4.3385 2.0548 6.0882 1.9105 2.5081 2.9452 5.5737 2.9452 8.7266v28.5397c0 1.1046-.8954 2-2 2h-12c-1.1046 0-2-.8954-2-2z" fill="#dfe3e8"/><path d="m24 30h13v18h-13z" fill="#00a591"/></svg>

<svg width="64" height="64" viewBox="0 0 64 64" fill="none" xmlns="http://www.w3.org/2000/svg">
<rect width="64" height="64" fill="white"/>
<path d="M24 28.4603C24 25.3074 25.0347 22.2418 26.9452 19.7337C28.2781 17.984 29 15.8451 29 13.6455V5C29 4.44771 29.4477 4 30 4H34C34.5523 4 35 4.44772 35 5V13.6455C35 15.8451 35.7219 17.984 37.0548 19.7337C38.9653 22.2418 40 25.3074 40 28.4603V57C40 58.1046 39.1046 59 38 59H26C24.8954 59 24 58.1046 24 57V28.4603Z" fill="#DFE3E8"/>
<rect x="24" y="30" width="13" height="18" fill="#00A591"/>
</svg>
